svg/parkay-floor.svg

<svg width="40" height="40" xmlns="http://www.w3.org/2000/svg"><path d="M20 20.5V18H0v-2h20v-2H0v-2h20v-2H0V8h20V6H0V4h20V2H0V0h22v20h2V0h2v20h2V0h2v20h2V0h2v20h2V0h2v20h2v2H20v-1.5ZM0 20h2v20H0V20Zm4 0h2v20H4V20Zm4 0h2v20H8V20Zm4 0h2v20h-2V20Zm4 0h2v20h-2V20Zm4 4h20v2H20v-2Zm0 4h20v2H20v-2Zm0 4h20v2H20v-2Zm0 4h20v2H20v-2Z" fill="#000" fill-rule="evenodd"/></svg>

<?xml version="1.0" encoding="UTF-8" standalone="no"?>
<svg width="40px" height="40px" viewBox="0 0 40 40" version="1.1" xmlns="http://www.w3.org/2000/svg" xmlns:xlink="http://www.w3.org/1999/xlink">
    <!-- Generator: Sketch 40 (33762) - http://www.bohemiancoding.com/sketch -->
    <title>parkay</title>
    <desc>Created with Sketch.</desc>
    <defs></defs>
    <g id="Page-1" stroke="none" stroke-width="1" fill="none" fill-rule="evenodd">
        <g id="parkay" fill="#000000">
            <path d="M20,20.5 L20,18 L0,18 L0,16 L20,16 L20,14 L0,14 L0,12 L20,12 L20,10 L0,10 L0,8 L20,8 L20,6 L0,6 L0,4 L20,4 L20,2 L0,2 L0,0 L20.5,0 L22,0 L22,20 L24,20 L24,0 L26,0 L26,20 L28,20 L28,0 L30,0 L30,20 L32,20 L32,0 L34,0 L34,20 L36,20 L36,0 L38,0 L38,20 L40,20 L40,22 L20,22 L20,20.5 L20,20.5 Z M0,20 L2,20 L2,40 L0,40 L0,20 L0,20 Z M4,20 L6,20 L6,40 L4,40 L4,20 L4,20 Z M8,20 L10,20 L10,40 L8,40 L8,20 L8,20 Z M12,20 L14,20 L14,40 L12,40 L12,20 L12,20 Z M16,20 L18,20 L18,40 L16,40 L16,20 L16,20 Z M20,24 L40,24 L40,26 L20,26 L20,24 L20,24 Z M20,28 L40,28 L40,30 L20,30 L20,28 L20,28 Z M20,32 L40,32 L40,34 L20,34 L20,32 L20,32 Z M20,36 L40,36 L40,38 L20,38 L20,36 L20,36 Z" id="Combined-Shape"></path>
        </g>
    </g>
</svg>
